images/mysql.svg

<svg width="80" height="80" viewBox="0 0 80 80" fill="none" xmlns="http://www.w3.org/2000/svg">
<path d="M77.4649 40.2441C75.7372 51.23 72.3757 54.4413 66.4226 61.8216C60.4696 68.0751 51.9062 78.5164 39.7747 77.9343C28.7888 76.2066 25.5775 72.8451 18.1972 66.892C11.9437 60.939 1.5024 52.3756 2.08456 40.2441C3.81226 29.2582 7.17377 26.0469 13.1268 18.6667C19.0799 12.4131 27.6433 1.97183 39.7747 2.55399C50.7606 4.28169 53.9719 7.64319 61.3522 13.5962C67.6057 19.5493 78.047 28.1127 77.4649 40.2441Z" fill="#3765AF"/>
<path d="M24.4696 39.662C23.1175 39.2676 22.1973 39.6056 21.8029 40.5258L19.0987 46.6103L16.4508 40.5258C16.0564 39.6056 15.1363 39.2676 13.7841 39.662C13.202 39.8498 12.9203 40.1502 12.9203 40.8638V47.9249H14.7043V40.8638L17.5024 47.0047C17.8029 47.7371 18.2724 48.0188 19.155 48.0188C20.0377 48.0188 20.4508 47.7371 20.7888 47.0047L23.5494 40.8638V47.9249H25.3334V40.8638C25.3334 40.1878 25.0517 39.8498 24.4696 39.662Z" fill="white"/>
<path d="M33.5588 46.7794C33.5213 46.7794 30.1785 46.7794 29.6527 46.7794C28.6574 46.7606 28.6011 46.2535 28.6011 46.047V42.1784H26.817C26.8734 42.1972 26.817 46.0658 26.8358 46.1596C26.8358 47.0423 27.9626 47.8498 29.7466 47.8498H33.5588V48.3193C33.5588 48.4883 33.6903 49.0704 32.5447 49.2019H26.8922V50.4038H32.5072C33.4086 50.4038 35.3429 50.0657 35.3429 48.5071C35.3429 48.4695 35.3429 42.1409 35.3429 42.1409H33.5588V46.7794Z" fill="white"/>
<path d="M66.7042 41.6713C66.5728 41.5399 66.4225 41.4272 66.3099 41.277C65.9155 40.7512 65.4272 40.2629 64.9014 39.8873C64.4695 39.5868 63.493 39.1737 63.3427 38.6667C63.3427 38.6667 63.3427 38.6667 63.3052 38.6291C63.6056 38.5915 63.9437 38.4976 64.2629 38.4225C64.7324 38.2911 65.1455 38.3286 65.6526 38.2159C65.8592 38.1596 66.0845 38.0845 66.2911 38.0282C66.2911 37.9906 66.2911 37.9343 66.2911 37.8967C66.047 37.6526 65.8592 37.3145 65.615 37.0892C64.9014 36.4695 64.1315 35.8873 63.3427 35.399C62.9108 35.1174 62.3662 34.9296 61.9343 34.723C61.784 34.6291 61.5024 34.5915 61.4085 34.4789C61.1643 34.1784 61.0141 33.7652 60.8639 33.4272C60.4695 32.6573 60.0939 31.831 59.7183 31.0235C59.4742 30.4976 59.324 29.953 59.0047 29.4648C57.5963 27.1361 56.0563 25.7089 53.6901 24.338C53.1643 24.0563 52.5822 23.9436 51.9437 23.7934C51.6056 23.7934 51.2676 23.7559 50.9296 23.7371C50.723 23.6432 50.4977 23.3615 50.2911 23.2488C49.5211 22.7605 47.493 21.6901 46.9108 23.0986C46.5352 23.9812 47.4554 24.8826 47.7747 25.3145C48.0188 25.615 48.3005 25.9906 48.4883 26.3286C48.5822 26.5728 48.6197 26.8169 48.6948 27.061C48.9014 27.6807 49.1268 28.3192 49.4085 28.9014C49.5587 29.1831 49.7089 29.4836 49.9343 29.7652C50.0657 29.9155 50.2348 29.9718 50.2723 30.2347C50.0845 30.5164 50.0657 30.9108 49.9718 31.2488C49.4836 32.7887 49.6714 34.723 50.3662 35.8497C50.5728 36.1878 51.0986 36.9577 51.8122 36.6573C52.4319 36.4131 52.3005 35.6432 52.4507 34.9296C52.4883 34.7793 52.4507 34.6479 52.5446 34.554V34.5915C52.7324 34.9671 52.9202 35.3615 53.0892 35.7371C53.5211 36.4131 54.2535 37.1267 54.8733 37.5775C55.2113 37.8216 55.4554 38.2535 55.8873 38.4037V38.3662C55.8873 38.3662 55.8873 38.3662 55.8498 38.3662C55.7559 38.2347 55.6432 38.1784 55.5493 38.0845C55.3052 37.8404 55.0235 37.5399 54.8357 37.2582C54.2535 36.4882 53.7653 35.6244 53.2958 34.7605C53.0892 34.3286 52.9014 33.8779 52.7136 33.446C52.6197 33.2958 52.6197 33.0516 52.5071 32.9577C52.3005 33.2582 51.9812 33.5023 51.8686 33.8779C51.6244 34.4601 51.5869 35.1925 51.493 35.9436C51.4366 35.9436 51.4554 35.9436 51.4366 35.9812C51.0047 35.8498 50.8545 35.4366 50.6667 35.0235C50.2723 34.0469 50.1784 32.4695 50.5352 31.3615C50.6291 31.0798 51.061 30.1596 50.8732 29.8779C50.7794 29.6338 50.4977 29.4836 50.3474 29.2582C50.1596 29.0141 49.9718 28.676 49.8592 28.3756C49.5211 27.6056 49.3709 26.7418 48.9953 25.9718C48.8451 25.5962 48.5258 25.2394 48.3193 24.9202C48.0751 24.5446 47.7747 24.2817 47.5493 23.8498C47.493 23.6995 47.3991 23.4554 47.493 23.3051C47.5305 23.1737 47.5869 23.1549 47.6808 23.1174C47.8686 22.9671 48.3568 23.1549 48.5446 23.2488C49.0704 23.4554 49.4648 23.6432 49.8967 23.9249C50.0845 24.0563 50.2911 24.3192 50.5352 24.3944C50.6291 24.3944 50.723 24.3944 50.8169 24.3944C51.2488 24.4882 51.7371 24.4319 52.169 24.5446C52.9014 24.7887 53.5587 25.1267 54.1409 25.5023C55.9249 26.6479 57.4272 28.2629 58.4038 30.1972C58.554 30.4976 58.6479 30.8169 58.7794 31.1174C59.061 31.7934 59.4178 32.4695 59.6995 33.1455C59.9812 33.784 60.2441 34.4413 60.6761 34.9859C60.8826 35.2676 61.6902 35.4178 62.0845 35.5681C62.3662 35.6995 62.7981 35.8122 63.0423 35.9436C63.5117 36.2253 63.9625 36.5634 64.4319 36.8638C64.601 37.0328 65.3146 37.3709 65.3521 37.6526C64.2441 37.615 63.4178 37.7465 62.6855 38.0282C62.4789 38.1221 62.1596 38.1221 62.1409 38.3662C62.2723 38.4976 62.2723 38.6479 62.3474 38.7981C62.4977 39.0798 62.8169 39.4366 63.061 39.6244C63.3427 39.831 63.6432 40.0563 63.9437 40.2629C64.4695 40.6009 65.0892 40.7887 65.5963 41.1267C65.8967 41.3145 66.216 41.5587 66.4789 41.7652C66.6291 41.8967 66.723 42.0469 66.9108 42.1408V42.1033C66.8169 41.9718 66.7794 41.8028 66.7042 41.6713Z" fill="white"/>
<path d="M50.8171 25.8216C50.8171 25.8216 50.8171 25.8216 50.8171 25.8592C50.8171 25.8592 50.8171 25.8592 50.8547 25.8592C50.9861 26.0657 51.1551 26.2347 51.2866 26.4038C51.418 26.6103 51.4932 26.8357 51.5871 27.0423L51.6246 27.0047C51.8124 26.8732 51.9063 26.6291 51.9063 26.3286C51.8124 26.2347 51.8124 26.1408 51.7561 26.0469C51.6434 25.9155 51.4556 25.8592 51.3617 25.7653C51.1176 25.7653 50.9673 25.8028 50.8171 25.8216Z" fill="white"/>
<path d="M38.2724 39.831C37.2207 40.169 36.7324 40.6949 36.7324 41.6151V42.5916C36.7324 43.3991 37.6151 44.0939 39.155 44.2442C39.3052 44.2442 39.493 44.2442 39.6808 44.2442H41.5212C41.5775 44.2442 41.6526 44.2442 41.709 44.2442C42.2536 44.3005 42.5165 44.3944 42.6855 44.6198C42.817 44.7512 42.817 44.8263 42.817 44.9578V46.0094C42.817 46.1409 42.7231 46.2911 42.5728 46.4414C42.4226 46.5916 42.1409 46.6855 41.8029 46.6855C41.7465 46.6855 41.6714 46.6855 41.6151 46.6855H36.6949V47.9249H36.7137H41.878C42.4977 47.9249 43.0423 47.7935 43.5306 47.5869C44.3005 47.2113 44.6761 46.7606 44.6761 46.1033V44.7888C44.6761 44.2629 44.2442 43.8122 43.4179 43.4742C42.986 43.324 42.4414 43.2301 41.878 43.2301H39.7184C38.986 43.2301 38.6479 43.0235 38.554 42.5165C38.554 42.4601 38.554 42.385 38.554 42.3662V41.5587C38.554 41.5212 38.554 41.4648 38.554 41.4085C38.6479 41.0329 38.8357 40.939 39.4742 40.8827C39.5306 40.8827 39.6057 40.8827 39.6245 40.8827H44.7325V39.6808H39.7184C38.986 39.6808 38.6104 39.7183 38.2724 39.831Z" fill="white"/>
<path d="M57.6339 45.8028V39.662H55.8499L55.8123 45.8216C55.8123 47.0423 56.7325 47.7183 58.5729 47.8498C58.7607 47.8498 58.9109 47.8873 59.0987 47.8873H63.7748V46.6855H59.08C58.0283 46.6855 57.6339 46.4413 57.6339 45.8028Z" fill="white"/>
<path d="M54.7418 45.8968V41.6526C54.7418 40.5822 54.0094 39.9249 52.5071 39.7183C52.3193 39.6808 52.169 39.6808 51.9812 39.6808H48.5634C48.4132 39.6808 48.2254 39.7183 48.0751 39.7183C46.5728 39.9061 45.8028 40.5822 45.8028 41.6526V45.8968C45.8028 46.8733 46.3474 47.493 47.5681 47.8122C47.9437 47.9061 48.3193 47.9437 48.6197 47.9437H50.5164L51.9625 47.8498L53.3709 49.1456H55.4366L53.6901 47.5493C54.4413 47.2489 54.7418 46.7794 54.7418 45.8968ZM53.0141 41.7465V45.8029C53.0141 45.8592 53.0141 45.9343 53.0141 45.9906C52.939 46.2348 52.7887 46.4414 52.5446 46.5728L51.2488 45.4085H49.1831L50.6667 46.7606H49.0329C48.3193 46.7606 47.8686 46.4789 47.7747 45.9906C47.7747 45.9343 47.7371 45.8592 47.7371 45.8029V41.7465C47.7371 41.2019 48.2441 40.8639 49.0517 40.8639H51.7559C52.4695 40.8639 52.9202 41.1268 53.0141 41.5963C53.0141 41.6151 53.0141 41.6902 53.0141 41.7465Z" fill="white"/>
<path d="M66.1409 47.5492L65.8028 46.7229H65.4272V47.9248H65.6714V47.0046L66.0094 47.9248H66.1972L66.5352 47.0046L66.5728 47.9248H66.8169V46.7229H66.4413L66.1409 47.5492Z" fill="white"/>
<path d="M64.2066 46.9108H64.5822V47.9249H64.8264V46.9108H65.1644V46.7042H64.2066V46.9108Z" fill="white"/>
</svg>

<svg width="80" height="80" viewBox="0 0 80 80" fill="none" xmlns="http://www.w3.org/2000/svg"><path d="M77.465 40.244c-1.728 10.986-5.09 14.197-11.042 21.578-5.953 6.253-14.517 16.694-26.648 16.112-10.986-1.727-14.197-5.089-21.578-11.042-6.253-5.953-16.695-14.516-16.112-26.648 1.727-10.986 5.089-14.197 11.042-21.577C19.08 12.413 27.643 1.972 39.775 2.554c10.986 1.728 14.197 5.09 21.577 11.042 6.254 5.953 16.695 14.517 16.113 26.648z" fill="#3765AF"/><path d="M24.47 39.662c-1.352-.394-2.273-.056-2.667.864l-2.704 6.084-2.648-6.084c-.395-.92-1.315-1.258-2.667-.864-.582.188-.864.488-.864 1.202v7.06h1.784v-7.06l2.798 6.14c.3.733.77 1.015 1.653 1.015s1.296-.282 1.634-1.014l2.76-6.141v7.06h1.784v-7.06c0-.676-.281-1.014-.863-1.202zm9.089 7.118h-3.906c-.996-.02-1.052-.526-1.052-.733v-3.869h-1.784c.056.02 0 3.888.019 3.982 0 .882 1.127 1.69 2.91 1.69h3.813v.47c0 .168.131.75-1.014.882h-5.653v1.202h5.615c.902 0 2.836-.338 2.836-1.897v-6.366h-1.784v4.638zm33.145-5.109c-.131-.131-.281-.244-.394-.394a6.588 6.588 0 00-1.409-1.39c-.431-.3-1.408-.713-1.558-1.22l-.038-.038c.3-.037.639-.131.958-.206.47-.132.882-.094 1.39-.207.206-.056.431-.132.638-.188v-.131c-.244-.244-.432-.582-.676-.808a17.813 17.813 0 00-2.272-1.69c-.432-.282-.977-.47-1.409-.676-.15-.094-.432-.131-.526-.244-.244-.3-.394-.714-.544-1.052-.395-.77-.77-1.596-1.146-2.404-.244-.525-.394-1.07-.713-1.558-1.409-2.329-2.949-3.756-5.315-5.127-.526-.282-1.108-.394-1.746-.545-.338 0-.676-.037-1.014-.056-.207-.094-.432-.375-.639-.488-.77-.488-2.798-1.559-3.38-.15-.376.882.544 1.784.864 2.215.244.301.526.677.713 1.015.094.244.132.488.207.732.206.62.432 1.258.713 1.84.15.282.3.583.526.864.132.15.3.207.338.47-.188.281-.206.676-.3 1.014-.488 1.54-.3 3.474.394 4.6.207.339.733 1.109 1.446.808.62-.244.489-1.014.639-1.727.037-.15 0-.282.094-.376v.038c.187.375.375.77.544 1.145.432.676 1.165 1.39 1.784 1.84.338.245.582.677 1.014.827v-.038h-.037c-.094-.131-.207-.188-.3-.282-.245-.244-.526-.544-.714-.826-.582-.77-1.07-1.634-1.54-2.498-.207-.431-.395-.882-.582-1.314-.094-.15-.094-.394-.207-.488-.206.3-.526.544-.638.92-.245.582-.282 1.315-.376 2.066-.056 0-.038 0-.056.037-.432-.131-.582-.544-.77-.958-.395-.976-.489-2.554-.132-3.662.094-.281.526-1.201.338-1.483-.094-.244-.375-.394-.526-.62a3.661 3.661 0 01-.488-.882c-.338-.77-.488-1.634-.864-2.404-.15-.376-.47-.733-.676-1.052-.244-.375-.544-.638-.77-1.07-.056-.15-.15-.395-.056-.545.038-.131.094-.15.188-.188.188-.15.676.038.864.132.525.206.92.394 1.352.676.188.131.394.394.638.47h.282c.432.093.92.037 1.352.15.732.244 1.39.582 1.972.957a12.096 12.096 0 014.263 4.695c.15.3.244.62.375.92.282.676.639 1.352.92 2.028.282.639.545 1.296.977 1.84.207.283 1.014.433 1.408.583.282.132.714.244.958.376.47.281.92.62 1.39.92.169.169.883.507.92.789-1.108-.038-1.934.093-2.667.375-.206.094-.525.094-.544.338.131.132.131.282.206.432.15.282.47.639.714.826.282.207.582.432.883.639.525.338 1.145.526 1.652.864.3.188.62.432.883.638.15.132.244.282.432.376v-.038c-.094-.131-.132-.3-.207-.432z" fill="#fff"/><path d="M50.817 25.822v.037h.038c.131.207.3.376.432.545.131.206.206.432.3.638l.038-.037c.187-.132.281-.376.281-.676-.094-.094-.094-.188-.15-.282-.113-.131-.3-.188-.394-.282-.244 0-.395.038-.545.057zM38.272 39.831c-1.051.338-1.54.864-1.54 1.784v.977c0 .807.883 1.502 2.423 1.652h2.554c.545.056.807.15.976.376.132.131.132.206.132.338v1.051c0 .132-.094.282-.244.432-.15.15-.432.244-.77.244h-5.108v1.24h5.183a4.18 4.18 0 001.653-.338c.77-.376 1.145-.826 1.145-1.484V44.79c0-.526-.432-.977-1.258-1.315a4.816 4.816 0 00-1.54-.244h-2.16c-.732 0-1.07-.206-1.164-.713v-1.109c.094-.376.282-.47.92-.526h5.258V39.68h-5.014c-.732 0-1.108.037-1.446.15zm19.362 5.972v-6.141H55.85l-.038 6.16c0 1.22.92 1.896 2.76 2.028.189 0 .339.037.527.037h4.676v-1.202H59.08c-1.052 0-1.446-.244-1.446-.882zm-2.892.094v-4.244c0-1.07-.733-1.728-2.235-1.935-.188-.037-.338-.037-.526-.037h-3.418c-.15 0-.338.037-.488.037-1.502.188-2.272.864-2.272 1.935v4.244c0 .976.544 1.596 1.765 1.915.376.094.751.132 1.052.132h1.896l1.447-.094 1.408 1.296h2.066l-1.747-1.597c.751-.3 1.052-.77 1.052-1.652zm-1.728-4.15v4.244a.96.96 0 01-.47.582l-1.295-1.165h-2.066l1.484 1.353h-1.634c-.714 0-1.164-.282-1.258-.77 0-.057-.038-.132-.038-.188v-4.056c0-.545.507-.883 1.315-.883h2.704c.713 0 1.164.263 1.258.732v.15zM66.14 47.55l-.337-.827h-.376v1.202h.244v-.92l.338.92h.188l.338-.92.038.92h.244v-1.202h-.376l-.3.826zm-1.933-.64h.375v1.015h.244V46.91h.338v-.207h-.957v.207z" fill="#fff"/></svg>
